X:346
T:Stone in the Field
Z: id:dc-reel-322
M:C
L:1/8
K:A Dorian
A2eA cAeA|ABcd e2dB|G2dG BGdG|GBB2 GBdB|!
A2^cd e2d2|e2e2 e2fe|dcBA GABd|eaa2 efge|!
a3f gece|d2ef gfed|BAGB AGFE|D2BD dEFA|!
dff2 dff2|gfed cdeg|a3f dfed|cA E2:|!